src/icons/add-alert.svg

<?xml version="1.0" encoding="UTF-8"?>
<svg xmlns="http://www.w3.org/2000/svg" xmlns:xlink="http://www.w3.org/1999/xlink" width="32" height="32" viewBox="0 0 32 32" version="1.1">
<g id="surface1">
<path style=" stroke:none;fill-rule:nonzero;fill:rgb(0%,0%,0%);fill-opacity:1;" d="M 16 0.640625 C 14.941406 0.640625 14.078125 1.5 14.078125 2.558594 C 14.078125 3.617188 14.941406 4.480469 16 4.480469 C 17.058594 4.480469 17.921875 3.617188 17.921875 2.558594 C 17.921875 1.5 17.058594 0.640625 16 0.640625 Z M 18.714844 4.230469 C 18.152344 5.144531 17.152344 5.761719 16 5.761719 C 14.851562 5.761719 13.847656 5.144531 13.285156 4.230469 C 9.800781 5.257812 7.679688 8.207031 7.679688 12.160156 C 7.679688 18.785156 5.882812 20.433594 4.8125 21.421875 C 4.3125 21.878906 3.839844 22.3125 3.839844 23.039062 C 3.839844 25.625 7.816406 26.878906 16 26.878906 C 17.207031 26.878906 18.292969 26.84375 19.316406 26.789062 C 19.398438 27.234375 19.527344 27.660156 19.699219 28.066406 C 18.46875 28.136719 17.21875 28.160156 16 28.160156 C 14.75 28.160156 13.460938 28.136719 12.203125 28.0625 C 12.46875 29.921875 14.066406 31.359375 16 31.359375 C 17.882812 31.359375 19.4375 29.996094 19.765625 28.207031 C 20.765625 30.433594 23.007812 32 25.601562 32 C 29.121094 32 32 29.121094 32 25.601562 C 32 22.078125 29.121094 19.199219 25.601562 19.199219 C 25.5625 19.199219 25.53125 19.203125 25.492188 19.203125 C 24.84375 17.851562 24.320312 15.734375 24.320312 12.160156 C 24.320312 8.195312 22.199219 5.253906 18.714844 4.230469 Z M 25.601562 20.480469 C 28.414062 20.480469 30.71875 22.785156 30.71875 25.601562 C 30.71875 28.414062 28.414062 30.71875 25.601562 30.71875 C 22.785156 30.71875 20.480469 28.414062 20.480469 25.601562 C 20.480469 22.785156 22.785156 20.480469 25.601562 20.480469 Z M 24.960938 22.398438 L 24.960938 24.960938 L 22.398438 24.960938 L 22.398438 26.238281 L 24.960938 26.238281 L 24.960938 28.800781 L 26.238281 28.800781 L 26.238281 26.238281 L 28.800781 26.238281 L 28.800781 24.960938 L 26.238281 24.960938 L 26.238281 22.398438 Z M 24.960938 22.398438 "/>
</g>
</svg>

<svg role="img" viewBox="0 0 32 32" xmlns="http://www.w3.org/2000/svg"><path d="M16 .64c-1.059 0-1.922.86-1.922 1.919 0 1.058.863 1.921 1.922 1.921a1.926 1.926 0 0 0 1.922-1.921A1.922 1.922 0 0 0 16 .64m2.715 3.59A3.185 3.185 0 0 1 16 5.762a3.19 3.19 0 0 1-2.715-1.532C9.801 5.258 7.68 8.207 7.68 12.16c0 6.625-1.797 8.274-2.867 9.262-.5.457-.973.89-.973 1.617 0 2.586 3.976 3.84 12.16 3.84 1.207 0 2.293-.035 3.316-.09a6.1 6.1 0 0 0 .383 1.277c-1.23.07-2.48.094-3.699.094a65 65 0 0 1-3.797-.098A3.843 3.843 0 0 0 16 31.36c1.883 0 3.438-1.363 3.766-3.152 1 2.227 3.242 3.793 5.836 3.793C29.122 32 32 29.121 32 25.602c0-3.524-2.879-6.403-6.398-6.403-.04 0-.07.004-.11.004-.648-1.351-1.172-3.469-1.172-7.043 0-3.965-2.12-6.906-5.605-7.93m6.887 16.25c2.812 0 5.117 2.305 5.117 5.122 0 2.812-2.305 5.117-5.117 5.117-2.817 0-5.122-2.305-5.122-5.117 0-2.817 2.305-5.122 5.122-5.122m-.641 1.918v2.563h-2.563v1.277h2.563v2.563h1.277v-2.563h2.563v-1.277h-2.563v-2.563Zm0 0" style="stroke:none;fill-rule:nonzero;fill:rgb(0%,0%,0%);fill-opacity:1"/></svg>
